X:62
%%etbk:tnset id:21,pos:2,rep:3x,ant:
%%etbk:wsite http://www.thesession.org/tunes/display/762
%%etbk:pldat 2015-12-22T17:34,2014-12-07T13:31,2014-05-07T16:05,2014-03-23T15:38,2014-02-08T14:48,2014-02-06T18:16,2013-12-11T17:15,2013-12-04T18:21,2013-05-15T15:53,2013-05-07T19:51
T: Roaring Mary
Z: Piano Box Version by Martin Fleischmann
H: Created 2013-02-19 /  Last Modified 2013-12-04
M: 4/4
L: 1/8
R: reel
K: Dmaj
!1!D!2!FFF !3!A!1!D!2!F!3!A | !5!d!3!fff !4!g2 fe | !1!!4!d3B !1!A!2!B!3!de | !5!fede f!4!eee |
!1!D2!2!FF !3!ADFA | !5!d!3!fff !4!g2 fe | !1!!4!d3B !1!A!2!B!4!d!3!f | !5!afeg !3!f!1!d d2:|
|:!5!a3g !3!fffe | !1!d2!4!d!1!A !2!B!1!GzG | !2!d!4!g!2!gg !4!b!2!ggg | !4!a!2!fff !3!g2 zz|
!1!D2!2!FF !3!ADFA | !5!d!3!fff !4!g2 fe | !1!!4!d3B !1!AB!4!d!3!f | !5!afe!4!g !3!f!1!d d2:|


